X:85
T: Butcher's March (A)
T: Butcher's Jig
S: B.Breathnach: "Ceol Rince na hEireann" II/21 (gan ainm)
Z: B.Black
L: 1/8
M: 6/8
R: jig
K: G
Bdd edB|dBA AGA|dBB edB|dBG G2A|
Bdd edB|dBA A2g|faf g2e|1 dBG GAG :|2\
dBG G2||
B/d/|eAA fAA|gAA efg|eAA gfe|dBG GBd|
eAA fAA|gAA efg|faf gfe|1 dBG G2 :|2\
dBG GAG||

